svg/问答助手4.svg

<svg width="48" height="49" viewBox="0 0 48 49" fill="none" xmlns="http://www.w3.org/2000/svg"><rect width="48" height="49" fill="#DADADA"/><mask id="path-2-inside-1_2483_15959" fill="white"><path d="M942 92L-498 91.9999L-498 -17.0001L942 -17L942 92Z"/></mask><path d="M942 92L-498 91.9999L-498 -17.0001L942 -17L942 92Z" fill="white"/><path d="M0 10C0 4.47715 4.47715 0 10 0H38C43.5229 0 48 4.47715 48 10V39C48 44.5228 43.5228 49 38 49H10C4.47715 49 0 44.5228 0 39V10Z" fill="url(#paint0_linear_2483_15959)"/><path opacity="0.8" d="M37.1352 12.1489H26.5973C25.7183 12.1489 25.0078 12.8815 25.0078 13.7879V21.6853C25.0078 22.4286 25.6103 23.0311 26.3536 23.0311H26.6975C27.2508 23.0311 27.6993 23.4796 27.6993 24.033C27.6993 24.9065 28.7394 25.3617 29.381 24.7689L30.7413 23.5122C31.0761 23.2029 31.5152 23.0311 31.9711 23.0311H37.1326C38.009 23.0311 38.7221 22.2985 38.7221 21.3921V13.7879C38.7221 12.8815 38.0116 12.1489 37.1326 12.1489H37.1352ZM32.0011 19.8146H28.5706C28.1401 19.8146 27.7927 19.4563 27.7927 19.0124C27.7927 18.5686 28.1401 18.2103 28.5706 18.2103H32.0011C32.4315 18.2103 32.779 18.5686 32.779 19.0124C32.779 19.4563 32.4315 19.8146 32.0011 19.8146ZM35.1645 16.8226H28.5706C28.1401 16.8226 27.7927 16.4644 27.7927 16.0205C27.7927 15.5767 28.1401 15.2184 28.5706 15.2184H35.1645C35.595 15.2184 35.9424 15.5767 35.9424 16.0205C35.9424 16.4644 35.595 16.8226 35.1645 16.8226Z" fill="url(#paint1_linear_2483_15959)"/><path d="M18.485 27.495C20.8522 27.495 22.7581 25.5961 22.7581 23.2475C22.7581 20.8989 20.8522 19 18.485 19C16.1177 19 14.2118 20.8989 14.2118 23.2475C14.2118 25.5961 16.1277 27.495 18.485 27.495Z" fill="url(#paint2_linear_2483_15959)"/><path d="M24.5736 36C25.3661 36 25.998 35.3704 25.998 34.5808C25.998 33.9012 26.0381 33.2016 25.7573 32.562C25.5466 32.0723 25.1855 31.6326 24.8244 31.2628C24.032 30.4333 23.0189 29.8336 21.9456 29.4339C20.8723 29.0341 19.6586 28.8242 18.485 28.8242H18.515C17.3414 28.8242 16.1277 29.0341 15.0544 29.4339C13.9811 29.8336 12.968 30.4333 12.1756 31.2628C11.8145 31.6426 11.4534 32.0823 11.2427 32.562C10.9619 33.2016 11.002 33.9112 11.002 34.5808C11.002 35.3604 11.644 36 12.4264 36H24.5736Z" fill="url(#paint3_linear_2483_15959)"/><path d="M18.485 27.495C20.8522 27.495 22.7581 25.5961 22.7581 23.2475C22.7581 20.8989 20.8522 19 18.485 19C16.1177 19 14.2118 20.8989 14.2118 23.2475C14.2118 25.5961 16.1277 27.495 18.485 27.495Z" stroke="url(#paint4_linear_2483_15959)" stroke-width="0.4"/><path d="M24.5736 36C25.3661 36 25.998 35.3704 25.998 34.5808C25.998 33.9012 26.0381 33.2016 25.7573 32.562C25.5466 32.0723 25.1855 31.6326 24.8244 31.2628C24.032 30.4333 23.0189 29.8336 21.9456 29.4339C20.8723 29.0341 19.6586 28.8242 18.485 28.8242H18.515C17.3414 28.8242 16.1277 29.0341 15.0544 29.4339C13.9811 29.8336 12.968 30.4333 12.1756 31.2628C11.8145 31.6426 11.4534 32.0823 11.2427 32.562C10.9619 33.2016 11.002 33.9112 11.002 34.5808C11.002 35.3604 11.644 36 12.4264 36H24.5736Z" stroke="url(#paint5_linear_2483_15959)" stroke-width="0.4"/><defs><linearGradient id="paint0_linear_2483_15959" x1="24" y1="2.11484e-05" x2="24" y2="49" gradientUnits="userSpaceOnUse"><stop stop-color="#FE9D02"/><stop offset="1" stop-color="#F7701D"/></linearGradient><linearGradient id="paint1_linear_2483_15959" x1="31.865" y1="12.1489" x2="31.865" y2="26.3225" gradientUnits="userSpaceOnUse"><stop stop-color="white"/><stop offset="1" stop-color="#FFFCEF"/></linearGradient><linearGradient id="paint2_linear_2483_15959" x1="18.5" y1="19" x2="18.5" y2="36" gradientUnits="userSpaceOnUse"><stop stop-color="white"/><stop offset="1" stop-color="#EB8B16"/></linearGradient><linearGradient id="paint3_linear_2483_15959" x1="18.5" y1="19" x2="18.5" y2="36" gradientUnits="userSpaceOnUse"><stop stop-color="white"/><stop offset="1" stop-color="#EB8B16"/></linearGradient><linearGradient id="paint4_linear_2483_15959" x1="18.5" y1="19" x2="18.5" y2="36" gradientUnits="userSpaceOnUse"><stop offset="0.232498" stop-color="white"/><stop offset="1" stop-color="#FFAD47"/></linearGradient><linearGradient id="paint5_linear_2483_15959" x1="18.5" y1="19" x2="18.5" y2="36" gradientUnits="userSpaceOnUse"><stop offset="0.232498" stop-color="white"/><stop offset="1" stop-color="#FFAD47"/></linearGradient></defs></svg>

<svg fill="none" viewBox="0 0 48 49"><path fill="#DADADA" d="M0 0h48v49H0z"/><path fill="white" d="M942 92H-498V-17H942z"/><path fill="url(#a)" d="M0 10C0 4.477 4.477 0 10 0h28c5.523 0 10 4.477 10 10v29c0 5.523-4.477 10-10 10H10C4.477 49 0 44.523 0 39z"/><path fill="url(#b)" d="M37.135 12.149H26.597c-.879 0-1.59.733-1.59 1.639v7.897c0 .744.603 1.346 1.347 1.346h.344c.553 0 1.001.449 1.001 1.002 0 .874 1.04 1.329 1.682.736l1.36-1.257c.335-.31.774-.48 1.23-.48h5.162c.876 0 1.59-.733 1.59-1.64v-7.604c0-.906-.711-1.64-1.59-1.64zm-5.134 7.666h-3.43a.79.79 0 0 1-.778-.803.79.79 0 0 1 .778-.802H32a.79.79 0 0 1 .778.802.79.79 0 0 1-.778.803m3.163-2.992h-6.593a.79.79 0 0 1-.778-.803.79.79 0 0 1 .778-.802h6.593a.79.79 0 0 1 .778.802.79.79 0 0 1-.778.803" opacity=".8"/><path fill="url(#c)" d="M18.485 27.495c2.367 0 4.273-1.899 4.273-4.248 0-2.348-1.906-4.247-4.273-4.247s-4.273 1.899-4.273 4.247c0 2.35 1.916 4.248 4.273 4.248"/><path fill="url(#d)" d="M24.574 36c.792 0 1.424-.63 1.424-1.42 0-.679.04-1.378-.24-2.018-.211-.49-.572-.93-.934-1.3-.792-.829-1.805-1.428-2.878-1.828s-2.287-.61-3.461-.61h.03c-1.174 0-2.387.21-3.46.61-1.074.4-2.087 1-2.88 1.829-.36.38-.722.82-.932 1.299-.281.64-.241 1.35-.241 2.019 0 .78.642 1.419 1.424 1.419z"/><path stroke="url(#e)" stroke-width=".4" d="M18.485 27.495c2.367 0 4.273-1.899 4.273-4.248 0-2.348-1.906-4.247-4.273-4.247s-4.273 1.899-4.273 4.247c0 2.35 1.916 4.248 4.273 4.248Z"/><path stroke="url(#f)" stroke-width=".4" d="M24.574 36c.792 0 1.424-.63 1.424-1.42 0-.679.04-1.378-.24-2.018-.211-.49-.572-.93-.934-1.3-.792-.829-1.805-1.428-2.878-1.828s-2.287-.61-3.461-.61h.03c-1.174 0-2.387.21-3.46.61-1.074.4-2.087 1-2.88 1.829-.36.38-.722.82-.932 1.299-.281.64-.241 1.35-.241 2.019 0 .78.642 1.419 1.424 1.419z"/><defs><linearGradient id="a" x1="24" x2="24" y1="0" y2="49" gradientUnits="userSpaceOnUse"><stop stop-color="#FE9D02"/><stop offset="1" stop-color="#F7701D"/></linearGradient><linearGradient id="b" x1="31.865" x2="31.865" y1="12.149" y2="26.323" gradientUnits="userSpaceOnUse"><stop stop-color="white"/><stop offset="1" stop-color="#FFFCEF"/></linearGradient><linearGradient id="c" x1="18.5" x2="18.5" y1="19" y2="36" gradientUnits="userSpaceOnUse"><stop stop-color="white"/><stop offset="1" stop-color="#EB8B16"/></linearGradient><linearGradient id="d" x1="18.5" x2="18.5" y1="19" y2="36" gradientUnits="userSpaceOnUse"><stop stop-color="white"/><stop offset="1" stop-color="#EB8B16"/></linearGradient><linearGradient id="e" x1="18.5" x2="18.5" y1="19" y2="36" gradientUnits="userSpaceOnUse"><stop offset=".232" stop-color="white"/><stop offset="1" stop-color="#FFAD47"/></linearGradient><linearGradient id="f" x1="18.5" x2="18.5" y1="19" y2="36" gradientUnits="userSpaceOnUse"><stop offset=".232" stop-color="white"/><stop offset="1" stop-color="#FFAD47"/></linearGradient></defs></svg>
